X: 70
T:White Cockade, the
M:C
L:1/8
R:Reel
K:G
GA|B2 B2 B2 AG|B2 B2 B2 g2|d2 B2 B2 AG|B2 A2 A2 GA|B2 B2 cBAG|!
B2 d2 g3 a|bagf agfe|d2 B2 B2:||:Bc|d2 B2 g2 B2|d2 d2 d3 e|d2 B2 g2 fg|!
a2 A2 A2 GA|BGBd cBAG|B2 d2 g3 a|bagf agfe|d2 B2 B2:||
% <A name="D1X071">
